X: 31663
T: Parnell's March
R: jig
M: 6/8
K: Amajor
e2 d|:cAE cAE|efe e2 d|cAE cAE|efe e2d|
cdc Ace|fed cBA|Bee e^de|B2e e2 d|
cAE c2 d|efe ecA|d2 c d2 f|a3 agf|
e2c ABc|d2 B G2 A|BcB BcB|1 A3 e2 d:|2 A3 a2g||
|:f2d d2c|d2f agf|e3 efe|c3- c2 d|
efe Ace|fed cBA|B2e e^de|B2e e2 d|
cAE c2 d|efe ecA|d2 c d2 f|a3 agf|
e2c ABc|d2 B G2 A|BcB BcB|1 A3 a2g:|2 A3 e2 d||

